X: 10881
Q: "Maestoso"
M: C
L: 1/8
K: F
c2 | c>B A>B c2 c2 | c4 z2 f2 | d3 d c2 B2 |
(c3 d) c2 f2 | g2 c2 ce d=B | (c3 d) c2 c2 | (G>A) (B>A) G2 d2 |
c2 B2 A2 B2 | c2 d2 c2 (fA) | A2 G2 z2 c2 | F3 G A2 c2 |
d2 d2 d2 A2 | B3 c d2 e2 | f3 g a2 f2 | d2 B2 G2 e2 |
f3 g f2 A2 | B3 c d2 e2 | f3 g a2 f2 | d2 B2 G2 e2 |
f3 g f2 za | bagf ecde | f2 a2 c'2 za | bagf ecde | f2 a2 f2 |]



